asset/media/noto_laptop.svg

<svg width="32" height="32" viewBox="0 0 64 64" fill="none" xmlns="http://www.w3.org/2000/svg">
<g filter="url(#filter0_b_145_1563)">
<path d="M53 12.395H11.075C10.115 12.395 9.33496 13.175 9.33496 14.135V42.93C9.33496 43.89 10.115 44.67 11.075 44.67H53C53.96 44.67 54.74 43.89 54.74 42.93V14.135C54.74 13.175 53.965 12.395 53 12.395Z" fill="#B7D5E5"/>
<path d="M52.3752 41.5998H11.7002L12.1802 15.4648H51.8952L52.3752 41.5998Z" fill="url(#paint0_radial_145_1563)"/>
<path d="M60.5452 61.9102H3.79519C3.58019 61.9102 3.38019 61.8952 3.19519 61.8652C1.75519 61.6452 1.09019 59.7752 1.94519 58.4952L2.14019 58.2002H61.9352L62.1352 58.5002C63.0652 59.8902 62.1952 61.8802 60.6152 61.9052C60.5952 61.9102 60.5702 61.9102 60.5452 61.9102Z" fill="#2F7889"/>
<path d="M53.4201 45.2051H10.3001C9.6651 45.2051 9.0301 45.5901 8.6751 46.2001L1.6751 58.9401C1.3801 59.3801 1.6701 60.0001 2.1701 60.0001H61.9001C62.4001 60.0001 62.6901 59.3801 62.3951 58.9401L55.0401 46.1251C54.6901 45.5851 54.0551 45.2051 53.4201 45.2051Z" fill="#EEEEEE"/>
<path d="M43.1799 57.76H20.8999L22.3249 53.77H41.8599L43.1799 57.76Z" fill="#B7D5E5"/>
<path opacity="0.57" d="M36.3448 47.4198L36.2098 46.3198H34.4898L34.5548 47.4198H36.3448ZM33.5698 47.4198L33.4998 46.3198H31.7748V47.4198H33.5698ZM46.8048 47.4198L46.3998 46.3198H44.7698L45.1098 47.4198H46.8048ZM44.1798 47.4198L43.8398 46.3198H42.1798L42.4498 47.4198H44.1798ZM41.5898 47.4198L41.3198 46.3198H39.6348L39.8398 47.4198H41.5898ZM51.0548 47.4198L50.5798 46.3198H47.2248L47.6348 47.4198H51.0548ZM38.8048 47.4198L38.5998 46.3198H36.8948L37.0348 47.4198H38.8048ZM16.8798 47.4198L17.2198 46.3198H15.5898L15.1848 47.4198H16.8798ZM25.2548 47.4198L25.3898 46.3198H23.6848L23.4848 47.4198H25.2548ZM19.6748 47.4198L19.9448 46.3198H18.2848L17.9498 47.4198H19.6748ZM14.0848 47.4198L14.4898 46.3198H12.8998L12.4248 47.4198H14.0848ZM22.4648 47.4198L22.6698 46.3198H20.9848L20.7148 47.4198H22.4648ZM28.0398 47.4198L28.1098 46.3198H26.3898L26.2548 47.4198H28.0398ZM30.8248 47.4198V46.3198H29.0998L29.0298 47.4198H30.8248ZM41.8898 51.8648H22.1798L21.8048 52.9648H42.3448L41.8898 51.8648ZM51.0748 52.9648L50.4698 51.8648H53.7398L54.2148 52.9648H51.0748ZM43.3748 52.9648L42.9598 51.8648H46.1048L46.5848 52.9648H43.3748ZM47.6948 52.9648L47.2148 51.8648H49.3698L49.9198 52.9648H47.6948ZM12.8348 52.9648L13.4398 51.8648H10.1698L9.69482 52.9648H12.8348ZM20.5348 52.9648L20.9498 51.8648H17.8048L17.3248 52.9648H20.5348ZM16.2098 52.9648L16.6948 51.8648H14.5398L13.9848 52.9648H16.2098ZM14.8548 49.2548L15.2648 48.1598H11.9298L11.4548 49.2548H14.8548ZM48.9748 49.2548L48.5698 48.1598H51.8998L52.3748 49.2548H48.9748ZM48.1248 49.2548L47.6448 48.1598H45.7198L46.1298 49.2548H48.1248ZM43.1148 49.2548L42.7898 48.1598H44.7148L45.1048 49.2548H43.1148ZM40.0948 49.2548L39.8598 48.1598H41.7848L42.0848 49.2548H40.0948ZM37.0748 49.2548L36.9348 48.1598H38.8548L39.0698 49.2548H37.0748ZM34.0598 49.2548L34.0048 48.1598H35.9298L36.0498 49.2548H34.0598ZM31.0398 49.2548L31.0748 48.1598H32.9998L33.0298 49.2548H31.0398ZM28.0198 49.2548L28.1448 48.1598H30.0698L30.0148 49.2548H28.0198ZM25.0048 49.2548L25.2148 48.1598H27.1398L26.9948 49.2548H25.0048ZM21.9848 49.2548L22.2848 48.1598H24.2098L23.9748 49.2548H21.9848ZM18.9648 49.2548L19.3548 48.1598H21.2798L20.9598 49.2548H18.9648ZM15.9498 49.2548L16.4248 48.1598H18.3498L17.9398 49.2548H15.9498ZM14.8498 51.1098L15.2548 50.0098H10.8798L10.4048 51.1098H14.8498ZM47.9348 51.1098L47.5498 50.0098H45.4648L45.7848 51.1098H47.9348ZM42.4648 51.1098L42.2248 50.0098H44.3048L44.6148 51.1098H42.4648ZM39.1398 51.1098L38.9798 50.0098H41.0648L41.2898 51.1098H39.1398ZM35.8198 51.1098L35.7348 50.0098H37.8198L37.9698 51.1098H35.8198ZM32.4998 51.1098L32.4948 50.0098H34.5748L34.6498 51.1098H32.4998ZM29.1798 51.1098L29.2498 50.0098H31.3348L31.3298 51.1098H29.1798ZM25.8548 51.1098L26.0048 50.0098H28.0898L28.0048 51.1098H25.8548ZM22.5348 51.1098L22.7648 50.0098H24.8448L24.6848 51.1098H22.5348ZM19.2148 51.1098L19.5198 50.0098H21.6048L21.3648 51.1098H19.2148ZM15.8898 51.1098L16.2748 50.0098H18.3598L18.0448 51.1098H15.8898ZM48.7348 51.1098L48.3248 50.0098H52.6998L53.1748 51.1098H48.7348Z" fill="#69A1BA"/>
<path d="M62.3649 58.9398L55.1949 46.1998C54.8399 45.6648 54.2049 45.2798 53.5699 45.2798C53.5699 45.2798 54.1799 45.8298 54.3649 46.0948L60.6599 57.8898C60.9399 58.3998 60.5699 59.0198 59.9899 59.0198H3.97994C3.40494 59.0198 3.03494 58.4048 3.30494 57.8998L9.27994 46.3098C9.45494 46.0098 10.2199 45.3148 10.2199 45.3148H9.99494C9.35994 45.3148 8.72494 45.6998 8.36994 46.3098L1.63994 58.9398C1.34494 59.3798 1.63494 59.9998 2.13494 59.9998H61.8649C62.3699 59.9998 62.6599 59.3798 62.3649 58.9398Z" fill="#B7D5E5"/>
<path d="M12.9849 14.0098H19.5899" stroke="#EEEEEE" stroke-width="2.936" stroke-miterlimit="10" stroke-linecap="round"/>
<path d="M54.6852 15.0549C54.6852 14.5349 54.1802 14.4949 54.1802 15.1099V43.0099C54.1802 43.6799 53.6352 44.2249 52.9652 44.2249H11.0402C10.3702 44.2249 9.82521 43.6799 9.82521 43.0099V15.1099C9.82521 14.4949 9.32021 14.5349 9.32021 15.0549L8.84521 43.0099C8.84521 44.2199 9.46521 45.2049 11.0402 45.2049H52.9652C54.3302 45.2049 55.1602 44.2199 55.1602 43.0099L54.6852 15.0549Z" fill="#75A7BC"/>
</g>
<defs>
<filter id="filter0_b_145_1563" x="-4" y="-4" width="72" height="72" filterUnits="userSpaceOnUse" color-interpolation-filters="sRGB">
<feFlood flood-opacity="0" result="BackgroundImageFix"/>
<feGaussianBlur in="BackgroundImageFix" stdDeviation="2"/>
<feComposite in2="SourceAlpha" operator="in" result="effect1_backgroundBlur_145_1563"/>
<feBlend mode="normal" in="SourceGraphic" in2="effect1_backgroundBlur_145_1563" result="shape"/>
</filter>
<radialGradient id="paint0_radial_145_1563" cx="0" cy="0" r="1" gradientUnits="userSpaceOnUse" gradientTransform="translate(24.2042 1.96581) scale(37.7325 40.9133)">
<stop stop-color="#2F7889"/>
<stop offset="1" stop-color="#424242"/>
</radialGradient>
</defs>
</svg>

<svg xmlns="http://www.w3.org/2000/svg" width="32" height="32" fill="none" viewBox="0 0 64 64"><g filter="url(#a)"><path fill="#B7D5E5" d="M53 12.395H11.075c-.96 0-1.74.78-1.74 1.74V42.93c0 .96.78 1.74 1.74 1.74H53c.96 0 1.74-.78 1.74-1.74V14.135c0-.96-.775-1.74-1.74-1.74Z"/><path fill="url(#b)" d="M52.375 41.6H11.7l.48-26.135h39.715l.48 26.135Z"/><path fill="#2F7889" d="M60.545 61.91H3.795c-.215 0-.415-.015-.6-.045-1.44-.22-2.105-2.09-1.25-3.37l.195-.295h59.795l.2.3c.93 1.39.06 3.38-1.52 3.405-.02.005-.045.005-.07.005Z"/><path fill="#EEE" d="M53.42 45.205H10.3c-.635 0-1.27.385-1.625.995l-7 12.74C1.38 59.38 1.67 60 2.17 60H61.9c.5 0 .79-.62.495-1.06L55.04 46.125c-.35-.54-.985-.92-1.62-.92Z"/><path fill="#B7D5E5" d="M43.18 57.76H20.9l1.425-3.99H41.86l1.32 3.99Z"/><path fill="#69A1BA" d="m36.345 47.42-.135-1.1h-1.72l.065 1.1h1.79Zm-2.775 0-.07-1.1h-1.725v1.1h1.795Zm13.235 0-.405-1.1h-1.63l.34 1.1h1.695Zm-2.625 0-.34-1.1h-1.66l.27 1.1h1.73Zm-2.59 0-.27-1.1h-1.685l.205 1.1h1.75Zm9.465 0-.475-1.1h-3.355l.41 1.1h3.42Zm-12.25 0-.205-1.1h-1.705l.14 1.1h1.77Zm-21.925 0 .34-1.1h-1.63l-.405 1.1h1.695Zm8.375 0 .135-1.1h-1.705l-.2 1.1h1.77Zm-5.58 0 .27-1.1h-1.66l-.335 1.1h1.725Zm-5.59 0 .405-1.1H12.9l-.475 1.1h1.66Zm8.38 0 .205-1.1h-1.685l-.27 1.1h1.75Zm5.575 0 .07-1.1h-1.72l-.135 1.1h1.785Zm2.785 0v-1.1H29.1l-.07 1.1h1.795Zm11.065 4.445H22.18l-.375 1.1h20.54l-.455-1.1Zm9.185 1.1-.605-1.1h3.27l.475 1.1h-3.14Zm-7.7 0-.415-1.1h3.145l.48 1.1h-3.21Zm4.32 0-.48-1.1h2.155l.55 1.1h-2.225Zm-34.86 0 .605-1.1h-3.27l-.475 1.1h3.14Zm7.7 0 .415-1.1h-3.145l-.48 1.1h3.21Zm-4.325 0 .485-1.1H14.54l-.555 1.1h2.225Zm-1.355-3.71.41-1.095H11.93l-.475 1.095h3.4Zm34.12 0-.405-1.095h3.33l.475 1.095h-3.4Zm-.85 0-.48-1.095H45.72l.41 1.095h1.995Zm-5.01 0-.325-1.095h1.925l.39 1.095h-1.99Zm-3.02 0-.235-1.095h1.925l.3 1.095h-1.99Zm-3.02 0-.14-1.095h1.92l.215 1.095h-1.995Zm-3.015 0-.055-1.095h1.925l.12 1.095h-1.99Zm-3.02 0 .035-1.095H33l.03 1.095h-1.99Zm-3.02 0 .125-1.095h1.925l-.055 1.095H28.02Zm-3.015 0 .21-1.095h1.925l-.145 1.095h-1.99Zm-3.02 0 .3-1.095h1.925l-.235 1.095h-1.99Zm-3.02 0 .39-1.095h1.925l-.32 1.095h-1.995Zm-3.015 0 .475-1.095h1.925l-.41 1.095h-1.99Zm-1.1 1.855.405-1.1H10.88l-.475 1.1h4.445Zm33.085 0-.385-1.1h-2.085l.32 1.1h2.15Zm-5.47 0-.24-1.1h2.08l.31 1.1h-2.15Zm-3.325 0-.16-1.1h2.085l.225 1.1h-2.15Zm-3.32 0-.085-1.1h2.085l.15 1.1h-2.15Zm-3.32 0-.005-1.1h2.08l.075 1.1H32.5Zm-3.32 0 .07-1.1h2.085l-.005 1.1h-2.15Zm-3.325 0 .15-1.1h2.085l-.085 1.1h-2.15Zm-3.32 0 .23-1.1h2.08l-.16 1.1h-2.15Zm-3.32 0 .305-1.1h2.085l-.24 1.1h-2.15Zm-3.325 0 .385-1.1h2.085l-.315 1.1H15.89Zm32.845 0-.41-1.1H52.7l.475 1.1h-4.44Z" opacity=".57"/><path fill="#B7D5E5" d="m62.365 58.94-7.17-12.74c-.355-.535-.99-.92-1.625-.92 0 0 .61.55.795.815L60.66 57.89a.763.763 0 0 1-.67 1.13H3.98a.764.764 0 0 1-.675-1.12L9.28 46.31c.175-.3.94-.995.94-.995h-.225c-.635 0-1.27.385-1.625.995L1.64 58.94c-.295.44-.005 1.06.495 1.06h59.73c.505 0 .795-.62.5-1.06Z"/><path stroke="#EEE" stroke-linecap="round" stroke-miterlimit="10" stroke-width="2.936" d="M12.985 14.01h6.605"/><path fill="#75A7BC" d="M54.685 15.055c0-.52-.505-.56-.505.055v27.9c0 .67-.545 1.215-1.215 1.215H11.04c-.67 0-1.215-.545-1.215-1.215v-27.9c0-.615-.505-.575-.505-.055L8.845 43.01c0 1.21.62 2.195 2.195 2.195h41.925c1.365 0 2.195-.985 2.195-2.195l-.475-27.955Z"/></g><defs><radialGradient id="b" cx="0" cy="0" r="1" gradientTransform="matrix(37.7325 0 0 40.9133 24.204 1.966)" gradientUnits="userSpaceOnUse"><stop stop-color="#2F7889"/><stop offset="1" stop-color="#424242"/></radialGradient><filter id="a" width="72" height="72" x="-4" y="-4" color-interpolation-filters="sRGB" filterUnits="userSpaceOnUse"><feFlood flood-opacity="0" result="BackgroundImageFix"/><feGaussianBlur in="BackgroundImageFix" stdDeviation="2"/><feComposite in2="SourceAlpha" operator="in" result="effect1_backgroundBlur_145_1563"/><feBlend in="SourceGraphic" in2="effect1_backgroundBlur_145_1563" result="shape"/></filter></defs></svg>
